client/public/images/link.svg

<svg height="12" viewBox="0 0 14 12" width="14" xmlns="http://www.w3.org/2000/svg"><path d="m6.05257202 8.00824013-2.35288377 2.34312077c-.28106785.2810095-.66294598.4389724-1.06122336.4389724s-.78015551-.1579629-1.06122335-.4389724c-.28368481-.2791017-.44334796-.65969484-.44334796-1.05681994s.15966315-.77771825.44334796-1.05681993l2.35288378-2.34312078c.23778811-.23680144.23778811-.62073244 0-.85753389-.23778812-.23680144-.62331883-.23680144-.86110695 0l-2.35288378 2.34915975c-.98484118 1.0675206-.94974603 2.71836169.07958114 3.74341779s2.68704673 1.0600056 3.75901533.0792509l2.35894791-2.34312078c.23778812-.23680145.23778812-.62073245 0-.85753389-.23778812-.23680145-.62331883-.23680145-.86110695 0zm-1.98903577-.13285737c.11444162.1130414.269367.17605821.43055348.17514027.16118647.00091794.31611185-.06209887.43055347-.17514027l2.98355366-2.97117376c.23778811-.23680145.23778811-.62073245 0-.85753389-.23778812-.23680145-.62331883-.23680145-.86110695 0l-2.98355366 2.97117376c-.11480172.11339171-.17937605.26774531-.17937605.42876695 0 .16102163.06457433.31537524.17937605.42876694zm7.38005045 1.70902881h-.6064134v-.6038971c0-.33352317-.2715005-.60389711-.6064133-.60389711-.33491288 0-.60641338.27037394-.60641338.60389711v.6038971h-.60641334c-.33491285 0-.60641335.27037395-.60641335.60389713 0 .3335231.2715005.6038971.60641335.6038971h.60641334v.6038971c0 .3335232.2715005.6038971.60641338.6038971.3349128 0 .6064133-.2703739.6064133-.6038971v-.6038971h.6064134c.3349128 0 .6064133-.270374.6064133-.6038971 0-.33352318-.2715005-.60389713-.6064133-.60389713zm-2.54087196-2.69942006 2.35288376-2.34915975c.9848412-1.0675206.9497461-2.71836165-.0795811-3.74341776-1.0293272-1.0250561-2.68704675-1.06000563-3.75901535-.07925092l-2.35894791 2.34312077c-.15382195.15318368-.21389626.37645375-.15759353.58570655.05630274.2092528.2204288.37269784.43055349.42876695.21012468.05606912.43432505-.00375592.58814699-.15693961l2.35288377-2.34312077c.28106785-.28100946.66294598-.43897239 1.06122336-.43897239s.78015548.15796293 1.06122338.43897239c.2836848.27910168.4433479.65969483.4433479 1.05681994 0 .3971251-.1596631.77771825-.4433479 1.05681993l-2.35288381 2.34312078c-.11480172.1133917-.17937605.2677453-.17937605.42876694s.06457433.31537524.17937605.42876695c.11386417.11432536.26886092.17863175.43055348.17863175s.3166893-.06430639.43055347-.17863175z" fill="#fff" transform="translate(.866667)"/></svg>

<?xml version="1.0" encoding="UTF-8"?>
<svg width="14px" height="12px" viewBox="0 0 14 12" version="1.1" xmlns="http://www.w3.org/2000/svg" xmlns:xlink="http://www.w3.org/1999/xlink">
    <title>add-link-1784382</title>
    <g id="Page-1" stroke="none" stroke-width="1" fill="none" fill-rule="evenodd">
        <g id="Home" transform="translate(-269.000000, -487.000000)" fill="#FFFFFF" fill-rule="nonzero">
            <g id="add-link-1784382" transform="translate(269.866667, 487.000000)">
                <path d="M6.05257202,8.00824013 L3.69968825,10.3513609 C3.4186204,10.6323704 3.03674227,10.7903333 2.63846489,10.7903333 C2.24018751,10.7903333 1.85830938,10.6323704 1.57724154,10.3513609 C1.29355673,10.0722592 1.13389358,9.69166606 1.13389358,9.29454096 C1.13389358,8.89741586 1.29355673,8.51682271 1.57724154,8.23772103 L3.93012532,5.89460025 C4.16791343,5.65779881 4.16791343,5.27386781 3.93012532,5.03706636 C3.6923372,4.80026492 3.30680649,4.80026492 3.06901837,5.03706636 L0.71613459,7.38622611 C-0.268706593,8.45374671 -0.233611443,10.1045878 0.795715728,11.1296439 C1.8250429,12.1547 3.48276246,12.1896495 4.55473106,11.2088948 L6.91367897,8.86577402 C7.15146709,8.62897257 7.15146709,8.24504157 6.91367897,8.00824013 C6.67589085,7.77143868 6.29036014,7.77143868 6.05257202,8.00824013 L6.05257202,8.00824013 Z M4.06353625,7.87538276 C4.17797787,7.98842416 4.33290325,8.05144097 4.49408973,8.05052303 C4.6552762,8.05144097 4.81020158,7.98842416 4.9246432,7.87538276 L7.90819686,4.904209 C8.14598497,4.66740755 8.14598497,4.28347655 7.90819686,4.04667511 C7.67040874,3.80987366 7.28487803,3.80987366 7.04708991,4.04667511 L4.06353625,7.01784887 C3.94873453,7.13124058 3.8841602,7.28559418 3.8841602,7.44661582 C3.8841602,7.60763745 3.94873453,7.76199106 4.06353625,7.87538276 Z M11.4435867,9.58441157 L10.8371733,9.58441157 L10.8371733,8.98051447 C10.8371733,8.6469913 10.5656728,8.37661736 10.23076,8.37661736 C9.89584712,8.37661736 9.62434662,8.6469913 9.62434662,8.98051447 L9.62434662,9.58441157 L9.01793328,9.58441157 C8.68302043,9.58441157 8.41151993,9.85478552 8.41151993,10.1883087 C8.41151993,10.5218318 8.68302043,10.7922058 9.01793328,10.7922058 L9.62434662,10.7922058 L9.62434662,11.3961029 C9.62434662,11.7296261 9.89584712,12 10.23076,12 C10.5656728,12 10.8371733,11.7296261 10.8371733,11.3961029 L10.8371733,10.7922058 L11.4435867,10.7922058 C11.7784995,10.7922058 12.05,10.5218318 12.05,10.1883087 C12.05,9.85478552 11.7784995,9.58441157 11.4435867,9.58441157 Z M8.90271474,6.88499151 L11.2555985,4.53583176 C12.2404397,3.46831116 12.2053446,1.81747011 11.1760174,0.792414003 C10.1466902,-0.232642101 8.48897065,-0.267591628 7.41700205,0.713163078 L5.05805414,3.05628385 C4.90423219,3.20946753 4.84415788,3.4327376 4.90046061,3.6419904 C4.95676335,3.8512432 5.12088941,4.01468824 5.3310141,4.07075735 C5.54113878,4.12682647 5.76533915,4.06700143 5.91916109,3.91381774 L8.27204486,1.57069697 C8.55311271,1.28968751 8.93499084,1.13172458 9.33326822,1.13172458 C9.7315456,1.13172458 10.1134237,1.28968751 10.3944916,1.57069697 C10.6781764,1.84979865 10.8378395,2.2303918 10.8378395,2.62751691 C10.8378395,3.02464201 10.6781764,3.40523516 10.3944916,3.68433684 L8.04160779,6.02745762 C7.92680607,6.14084932 7.86223174,6.29520292 7.86223174,6.45622456 C7.86223174,6.6172462 7.92680607,6.7715998 8.04160779,6.88499151 C8.15547196,6.99931687 8.31046871,7.06362326 8.47216127,7.06362326 C8.63385383,7.06362326 8.78885057,6.99931687 8.90271474,6.88499151 Z" id="Shape"></path>
            </g>
        </g>
    </g>
</svg>
